X:1
T:Bach - Prelude and Fugue in C Minor.
T:J.S. Bach Prelude and Fugue in C Minor BWV 549
C:Johann Sebastian Bach.
%%score { ( 1 4 ) | ( 2 5 6 ) | 3 } { ( 7 11 ) | ( 8 10 12 ) | 9 }
L:1/8
Q:1/4=60
M:4/4
K:Eb
V:1 treble nm="Organ"
V:4 treble 
V:2 bass 
V:5 bass 
V:6 bass 
V:3 bass 
V:7 treble nm="Organ"
V:11 treble 
V:8 bass 
V:10 bass 
V:12 bass 
V:9 bass 
V:1
"^Praeludium" z8 | z8 | z8[Q:1/4=70] | z8 | z8 | z8 | z8 | z8[Q:1/4=60][Q:1/4=50] | %8
 z/[Q:1/4=60] G/c/=B/ M=c2- c/c/f/=e/ f2- | f>f _e2- e/e/"^(""^)"Pd/c/ d2- | %10
 d/d/c/4d/4=B/ c2- c/c/d/c/ =B/c/=A/B/ | c4- c/c/d/c/ _B/c/=A/c/ | B8- | B/B/=A/G/ A/B/=E/G/ ^F4 | %14
 z/ d/_e/d/ c/e/d/c/ =a4 | d4- d/d/e/d/ c/B/=A/G/ | d4 g2- g/g/^f/e/ | d/e/c/d/ B/c/=A/c/ B4- | %18
 B/B/c/_d/ G/_A/B/c/ A4 | GGGG- G/G/c- c/c/e- | e/e/g/d/ e2- e4- | e/ee/- e/e/d/c/ =B/d/G/B/ cc- | %22
 c/c/=B/d/ g/d/e/B/ c4 | =BBBB _BBBB | _A2 z2 c2- c/c/=e/c/ | f2- f/f/c/_d/ c2- c/f/A/B/ | %26
 c6- c/B/c/_d/ | %27
 c/_d/B/c/ A>G- G2-[Q:1/4=58][Q:1/4=57][Q:1/4=56][Q:1/4=55] G/[Q:1/4=50]c[Q:1/4=40][Q:1/4=25]=B/ | %28
 !fermata!c2[Q:1/4=80] z2 z4 |][M:4/4][Q:1/4=70]"^Fuga" z8 | z8 | z8 | z8 | z8 | z8 | z8 | z8 | %37
 z8 | z8 | z8 | z8 | G/B/=A/B/ GB A2 D2 | G/B/=A/B/ A/c/B/c/ B2 G2 | %43
 B/d/c/d/ c/e/d/e/ d>e d/c/B/=A/ | B/=A/B/c/ A=B/c/ B/G/c/d/ TB>c | c/e/d/e/ ce d2 G2 | %46
 c/e/d/e/ d/f/e/f/ e2 c2 | e/g/f/g/ f/a/g/a/ g>a g/f/e/d/ | e/d/e/f/ Td>c c2- c/e/d/c/ | %49
 _B/c/B/=A/ TA>G z/ g/=f/g/ e/c/d/e/ | f/a/g/a/ d/f/e/d/ e/g/f/g/ a/g/f/e/ | %51
 d/f/e/f/ g/f/e/d/ c/d/=B/c/ d/e/d/c/ | =B/d/e/f/ g/a/g/f/ e/g/f/g/ e/g/f/g/ | %53
 =B/f/e/f/ B/f/e/d/ e/g/f/g/ B/d/c/B/ | c/e/d/f/ e/g/f/a/ g/e/d/e/ d/f/e/f/ | %55
 =B/G/c/d/ TB>B e/^F/G/=A/ TF>G | G z z g- g/g/^f/=e/ f/e/d/c/ | B g2 ^f g/=a/g/a/ b/g/=f/_e/ | %58
 d z z2 z4 | B/e/B/e/ =A/d/A/d/ =B/G/A/B/ c/g/c/g/ | c/f/c/f/ =B/f/B/f/ c/e/G/c/ =B/_A/G/F/ | %61
 E/G/F/G/ EE FFFF | E>C =B,/D/C/D/ C/G/C/F/ C/E/=B,/D/ | CEDF- F/D/E/F/ G/A/G/F/ | %64
 E/D/E/F/ PD>D C/cc/ _B>_A | z/ gf/ e>d c>B _A>B | G2- G/AG/- G/FE/- E/DC/- | %67
 C/C/D/C/ =B,/C/=A,/B,/ C/E/D/E/ CE | D2 D2[Q:1/4=75] E2 z z/ [Gc]/ | %69
 z/ [Ac]/x/[Ac]/ z/ [G=B]/x/[GB]/ [Gc] z [G=B] z | z/ [Gc]/x/[=Bd]/ z/ [ce]/x/[df]/ [eg] z [Ac] z | %71
 =B z z2 c z z2 | c z z2 [=Bdf] z z2 | [dg] z z2[Q:1/4=70] cd[Q:1/4=60] T=B>c | %74
[Q:1/4=80] c/e/d/e/ c/e/d/e/ d/f/e/f/ d/f/e/f/ | %75
[Q:1/4=70] e/g/[Q:1/4=80]f/g/ e/g/f/g/ f/a/g/a/ f/a/g/a/ | g/e/g/e/ g/e/g/e/ g/e/g/e/ g/e/g/e/ | %77
 f/d/f/d/ f/d/f/d/ f/d/f/d/ f/d/f/d/ | [Gce] z z2 [G=Bd] z z2 | [EGc] z z2 [FAc] z z2 | %80
[Q:1/4=30] [G=B] z z/[Q:1/4=80] f/g/a/ g/a/g/f/ e/a/e/a/ | f/g/f/e/ d/g/d/g/ e/f/e/d/ c/f/c/f/ | %82
 d/e/d/c/ =B/a/B/a/ g/a/e/g/ f/d/=B/g/ | e/c/f/e/ d/c/=B/d/ c/=A/d/c/[Q:1/4=50] B[Q:1/4=40] z | %84
 z2 [C=EGc]2 z2 z/4 G,/4=A,/4=B,/4C/4D/4=E/4F/4[Q:1/4=70] | %85
 G/4 c/4=B/4=A/4G/4 f/4=e/4d/4 c/4_a/4g/4f/4g/4f/4e/4d/4[Q:1/4=60] c/4e/4d/4c/4=B/4c/4=A/4B/4[Q:1/4=50] c/4G/4_A/4B/4[Q:1/4=40] TA/>G/ | %86
 A/4[Q:1/4=60] x3/4 F/4 G/4A/4B/4 A/4[Q:1/4=70] F/4G/4A/4 B/4 _d/4c/4B/4 c/4 B/4A/4G/4 F/4 B/4A/4G/4 F/4 _D/4C/4[Q:1/4=65]=B,/4[Q:1/4=60] C/4[Q:1/4=55] =D/4[Q:1/4=50]=E/4[Q:1/4=45]F/4 | %87
[Q:1/4=60] G4-[Q:1/4=30] !fermata!G4[Q:1/4=55][Q:1/4=50] |] %88
V:2
 z8 | z8 | z8 | z8 | z8 | z8 | z8 | z8 | z4 z2 z/ F,/A,/F,/ | %9
"^(""^)" MC2- C/C,/A,/G,/ A,2- A,/A,/"^(""^)"PG,/F,/ |"^(""^)" MG,2- G,/G,/F,/E,/ F,4 | %11
 z/ =B,/C/_B,/ =A,/B,/G,/A,/"^(""^)" M^F,4- | ^F,/=A,/B,/A,/ G,/A,/F,/A,/ G,4 | =E,4 =A,4 | z8 | %15
[K:treble] z/ ^F/G/A/ G/=F/E/D/ E4 |[K:bass] ^F4 D4- | DEDC D4 | C4- C4 | =B,B,B,B, C>C E>E | %20
 G2- G>G (3E/F/G/ (3C/D/E/ G,/C/ (3E,/F,/G,/ | x6 E>E | D>F E/=B,/C/D/ E2- E/E/D/C/ | DDDD CCCC | %24
 C2 z2 z/ F/=E/C/ F2- | F/F/=E/D/ F2- F/F/E/C/ F2- | F2 z/ =E/F/=B,/ z/ =E/F- F2- | %27
 F>=E z =D C2- CD | !fermata![C=E]2 z2 z4 |][M:4/4]!mp! z8 | z8 | z8 | z8 | %33
 G,/B,/=A,/B,/ G,B,"^(""^)" PA,2 D,2 | G,/B,/=A,/B,/ A,/C/B,/C/ B,2 G,2 | %35
 B,/D/C/D/ C/E/D/E/ D>E D/C/B,/=A,/ | B,/=A,/B,/C/ TA,>G, G,/F,/E,/F,/ TD,>C, | %37
 C,2 z2 z G,,/=A,,/ =B,,A,,/B,,/ | C, z z2 z C,/D,/ E,D,/E,/ | C,C_A,F, G,E,D,G, | %40
 C,G,^F,G, F, G,2 F, | G,2 z2 z D,/=E,/ ^F,E,/F,/ | G,ECD G,G,/=A,/ B,A,/B,/ | G,GEC ^F,D=E^F | %44
[K:treble] G2- G/C/=F- F_E/F/ D/_A/G/F/ | E/G/F/G/[K:bass] E/D/C- C=B,/=A,/ B,2 | %46
 G, C2 =B, C/G,/F,/G,/ E,/F,/E,/F,/ | G, C2 =B, C G,2 G,- | G, C2 =B, =A,4 | %49
 G,2[K:treble] CD E3 _A | D3 G C/E/D/E/ F/E/D/C/ | _B,/D/C/D/ E/G/F/G/ AG F/G/E/F/ | %52
 GFED C/E/D/E/ CE |"^(""^)" PD2 G,2 C/E/D/E/ D/F/E/F/ | E2 C2 E/G/F/G/ F/A/G/A/ | %55
 G/F/E/F/ D>D C_B,/C/[K:bass] T=A,>G, | G,2- G,/E/D/C/ D3 ^F, | G,ECD[K:treble] G=FEC | %58
 G/F/E/D/ E/G/^F/G/ F/=A/G/A/ B/A/G/F/ | G3 =F- FE/D/ E_A | DFGG, CED=B, | %61
[K:bass] C2- C/G,/C/G,/ C/F,/C/F,/ =B,/G,/B,/G,/ | G,>G, F,2 G, G,2 F, | G, C2 C =B,4 | %64
 C,A,F,G,- G,^F,G,D, | E,=B,,C,G, ^F,G,CD | EB,CB,xB,A,G, | F,2 G,F, E,2 z G, | G,2 G,2 G,2 z C | %69
 A,A,G,G, G, x D x | C=B,CB, [CE] x C x | =B, x x2 C x x2 | C x x2 D x x2 | %73
 D x x2 [G,C][A,D] [G,=B,]2 | [G,C] x2 G, G, x G, x | G, z z2 z4 | z8 | z8 | %78
 [G,C] z z2 [G,=B,] z z2 | [E,G,] z z2 [F,A,] z z2 | [D,G,] z x6 | x4 G,/A,/G,/F,/ E,/A,/E,/A,/ | %82
 F,/G,/F,/E,/ D,/F,/D,/F,/ E,/F,/G,/E,/ D,/=B,/G,/B,/ | %83
 C/_B,/=A,/C/ =B,/C/D/B,/ =A,/G,/^F,/A,/ G,/4D,/4=B,,/4D,/4G,, | %84
 z2 !breath![C,=E,G,]2 z/4 C,/4D,/4=E,/4F,/4G,/4=A,/4=B,/4 C/4 z/4 z/ z | x8 | x8 | %87
 z z/4 D/4C/4=B,/4 C2- !fermata!C4 |] %88
V:3
!fff! M=C,2 z/ G,,/C,/=B,,/ M=C,2 z/ C,/E,/D,/ | ME,2 z/ E,/G,/F,/ MG,2 z/ G,/C/=B,/ | %2
 M=C2 z/ C/G,/_B,/ A,/C/F,/A,/ D,/B,/A,/B,/ | %3
 G,/B,/E,/G,/ C,/A,/G,/A,/ F,/A,/D,/F,/ =B,,/G,/F,/G,/ | %4
 E,/G,/F,/G,/ D,/G,/F,/G,/ E,/G,/C,/F,/ D,/F,/B,,/E,/ | %5
 C,/E,/=A,,/D,/ B,,/D,/G,,/C,/ _A,,/C,/F,,/B,,/ G,,/B,,/E,,/E,/ | %6
 C,/E,/A,,/F,/ D,/F,/=B,,/G,/ E,/G,/C,/"^(""^)"=A,/ D,/=B,/E,/C/ | %7
 F,/A,/D,/F,/ E,/G,/C,/E,/ F,,/A,/G,/4A,/4F,/ M^G,G,, | C,8- | C,8- | C,8- | C,4 D,4- | D,8 | %13
 D,,4- D,,/ D,/_E,/D,/ C,/B,,/=A,,/G,,/ | ^F,,8 | G,,8- | G,,8- | G,,8 | =E,,4 F,,4- | %19
 F,,4 _E,,4- | E,,8 | A,,4 G,,4- | G,,8- | G,,4 =E,,4 | F,,8- | F,,8- | F,,4 C,,4- | C,,8 | %28
 !fermata!C,2 z2 z4 |][M:4/4] z8 | z8 | z8 | z8 | z8 | z8 | z8 | z8 | z8 | z8 | z8 | z8 | z8 | z8 | %43
 z8 | z8 | z8 | z8 | z8 | z8 | z8 | z8 | z8 | z8 | z8 | z8 | z8 | z8 | z8 | z8 | z8 | z8 | z8 | %62
 z8 | z8 | z8 | z8 | z8 | z8 | z4!fff! C,/E,/D,/E,/ C,E, | D,2 G,,2 C,/E,/D,/E,/ D,/F,/E,/F,/ | %70
 E,2 C,2 E,/G,/F,/G,/ F,/A,/G,/A,/ | G,/A,/F,/G,/ E,/F,/D,/E,/ C,/D,/_B,,/C,/ A,,/B,,/G,,/A,,/ | %72
 F,,/A,/G,/A,/ F,/G,/E,/F,/ D,/F,/E,/F,/ D,/E,/C,/D,/ | %73
 =B,,/D,/C,/D,/ G,,/B,,/=A,,/B,,/ E,,F,, G,,2 | C,, z z C, =B,, z G,, z | C,, z z2 z4 | z8 | z8 | %78
 C,,/E,,/D,,/E,,/ C,,/E,,/D,,/E,,/ D,,/F,,/E,,/F,,/ D,,/F,,/E,,/F,,/ | %79
 E,,/G,,/F,,/G,,/ E,,/G,,/F,,/G,,/ F,,/A,,/G,,/A,,/ F,,/A,,/G,,/A,,/ | G,, z z2 z4 | z8 | z8 | %83
 z4 z2 z .G,,/.F,,/ | =E,,4 z4 | z8 | F,,4 z4 | z4 !fermata!C,,4 |] %88
V:4
 x8 | x8 | x8 | x8 | x8 | x8 | x8 | x8 | z2 z/ E/A/G/ A2 z A- | A/A/G- G2 F2- FG/A/ | %10
 E2- E/E/F/G/ D4 | E4 D4- | D4- D/^F/G/=F/ =E/F/D/E/ | ^C4 ^F4 | z4 z/ c/d/e/ d/c/B/=A/ | B4 G4 | %16
 c4- c/c/B/=A/ B2- | B=AG^F G4- | G4- G/G/F/=E/ F2 | DDDD E>E G>G | c2- c/=B/c- c4- | %21
 cc F2- FF z/ G3/2- | G4- G/G/=A/G/ ^F2 | GGGG GGGG | F2 z/ c/G/B/ A4- | A4- A4 | %26
 z/ G/A/B/ A2- A>G A2- | AG z/ F3/2- F/=E/=D/E/- EF | G2 z2 z4 |][M:4/4] z8 | z8 | z8 | z8 | z8 | %34
 z8 | z8 | z8 | C/E/D/E/ CE D2 G,2 | C/E/D/E/ D/F/E/F/ E2 C2 | E/G/F/G/ F/A/G/A/ G>A G/F/E/D/ | %40
 E/D/E/F/ TD>C CB,/C/ T=A,>G, | G,2 z2 z4 | x8 | x8 | x8 | x8 | x8 | x8 | x8 | D G2 ^F G=B c2- | %50
 cc =B2 c z z2 | z8 | z8 | z8 | z8 | z8 | G/_B/=A/B/ GB A2 D2 | G/B/=A/B/ A/c/B/c/ B2 G2 | %58
 B/d/c/d/ c/e/d/e/ d>e d/c/B/=A/ | x8 | x8 | x8 | x8 | x8 | C2 z _B, =A,=A- A/G/_F | %65
 Gd- d/c/B- B/=A/G- G/G/F- | F/F/E/D/ ED C x3 | x6 z C | =B,2 B,2 C2 z z/ E/ | %69
 z/ [DF]/x/[DF]/ z/ [DF]/x/[DF]/ [CE] z F z | z/ E/x/[FG]/ z/ G/x/[G=B]/ [Gc] z F z | %71
 [DG] z z2 [EG] z z2 | [FA] z z2 A z z2 | [G=B] z z2 [EG][FA] [DFG]2 | [EG] z z C D z =B, z | %75
 C/E/D/E/ C/E/D/E/ D/F/E/F/ D/F/E/F/ | E/G/c/G/ E/G/c/G/ E/G/c/G/ E/G/c/G/ | %77
 D/F/A/F/ D/F/=B/F/ D/F/A/F/ D/F/B/F/ | E z z2 D z z2 | C z z2 C z z2 | %80
 D z z/ D/E/F/ E/F/E/D/ C/E/C/E/ | D/E/D/C/ =B,/D/B,/D/ x4 | x8 | x8 | x8 | x8 | %86
 z/4 C/4D/4=E/4 x7 | z/4 F/4=E/4D/4 E3- E4 |] %88
V:5
 x8 | x8 | x8 | x8 | x8 | x8 | x8 | x8 | x8 | x8 | x8 | G,2 x6 | x8 | x8 | x8 |[K:treble] x8 | %16
[K:bass] z/ =A,/B,/C/ B,/A,/G,/^F,/ G,4- | G,4 z/ B,/C/D/ G,/=A,/B,/D,/ | =E,4 C,2 z/ _E,/D,/C,/ | %19
 [=B,,D,G,][B,,D,G,][B,,D,G,][B,,D,G,] [C,E,G,] z z2 | x8 | F,4 G,4- | G,6 =A,2 | %23
 G,G,G,G, [C,=E,G,][C,E,G,][C,E,G,][C,E,G,] | [C,F,]2 x6 | x8 | x4 C4- | C2 z =B, C2 G,F, | %28
 [=E,G,]2 z2 z4 |][M:4/4] C,/E,/D,/E,/ C,E,"_(""_)" PD,2 G,,2 | %30
 C,/E,/D,/E,/ D,/F,/E,/F,/"_(""_)" PE,2 C,2 | E,/G,/F,/G,/ F,/A,/G,/A,/ G,>A, G,/F,/E,/D,/ | %32
 E,/D,/E,/F,/ TD,>C, C,B,,/C,/ T=A,,>G,, | G,,2 z2 z D,,/=E,,/ ^F,,E,,/F,,/ | %34
 G,,G,^F,D, G,G,,/=A,,/ B,,A,,/B,,/ | G,,G,E,C,- C,B,, ^F,,2 | G,,B,,C,D, =B,,C,F,,G,, | %37
 _A,,2 E,,C,, G,, z z2 | z E,,F,,G,, C,, z z2 | z C,F,D, =B,,C, B,,2 | C,3 _B,, =A,,G,,C,D, | %41
 G,,2 z2 z4 | z8 | z8 |[K:treble] z8 | z4[K:bass] z2 z G,/F,/ | E,2 F,G, C,4- | C,2 D,2 E,2 =B,,2 | %48
 C,2 G,2- G,G, ^F,2 | x2[K:treble] x6 | x8 | x8 | x8 | x8 | x8 | x6[K:bass] x2 | x8 | %57
 x4[K:treble] x4 | x8 | x8 | x8 |[K:bass] C,/E,/D,/E,/ C,E, D,2 G,,2 | %62
 C,/E,/D,/E,/ D,/F,/E,/F,/ E,2 C,2 | E,/G,/F,/G,/ F,/A,/G,/A,/ G,>A, G,/F,/E,/D,/ | x8 | x8 | %66
 x4 A,G,F,E, | D,2 G,,2 C,2 C,,2 | G,,/=B,,/=A,,/B,,/ G,,/B,,/A,,/B,,/ z2 z G, | %69
 F,F,D,D, E, z =B, z | G,[F,G,][E,G,][D,F,] G, z A, z | G, z z2 G, z z2 | A, z z2 A, z z2 | %73
 [G,=B,] z z2 E,F, D,2 | [C,E,] z z E, [D,F,] z D, z | C, x7 | x8 | x8 | x8 | x8 | x8 | x8 | x8 | %83
 x8 | x8 | x8 | x8 | z2 z/4 _A,/4G,/4F,/4 G,/4=E,/4F,/4G,/4- G,4 |] %88
V:6
 x8 | x8 | x8 | x8 | x8 | x8 | x8 | x8 | x8 | x8 | x8 | x8 | x8 | x8 | x8 |[K:treble] x8 | %16
[K:bass] x8 | x8 | x8 | x8 | x8 | x8 | x8 | x8 | x8 | x8 | x8 | x8 | x8 |][M:4/4] x8 | x8 | x8 | %32
 x8 | x8 | x8 | x8 | x8 | x8 | x8 | x8 | x8 | x8 | x8 | x8 |[K:treble] x8 | x2[K:bass] x6 | x8 | %47
 x8 | x8 | x2[K:treble] x6 | x8 | x8 | x8 | x8 | x8 | x6[K:bass] x2 | x8 | x4[K:treble] x4 | x8 | %59
 x8 | x8 |[K:bass] x8 | x8 | x8 | x8 | x8 | x8 | x8 | x8 | x8 | x8 | x8 | x8 | x8 | x8 | x8 | x8 | %77
 x8 | x8 | x8 | x8 | x8 | x8 | x8 | x8 | x8 | x8 | x4 [C,=E,]4 |] %88
V:7
 z8 | z8 | z8 | z8 | z8 | z8 | z8 | z8 | z8 | z8 | z8 | z8 | z8 | z8 | z8 | z8 | z8 | z8 | z8 | %19
 z8 | z8 | z8 | z8 | z8 | z8 | z8 | z8 | z8 | z8 |][M:4/4] z8 | z8 | z8 | z8 | z8 | z8 | z8 | z8 | %37
 z8 | z8 | z8 | z8 | z8 | z8 | z8 | z8 | z8 | z8 | z8 | z8 | z8 | z8 | z8 | z8 | z8 | z8 | z8 | %56
 z8 | z8 | z8 | z8 | z8 | z8 | z8 | z8 | z8 | z8 | z8 | z8 | z8 | z8 | z8 | z8 | z8 | z8 | z8 | %75
 z8 | z8 | z8 | z8 | z8 | z8 | z8 | z8 | z8 | z8 | z8 | z8 |!mp!!<(! G4- !fermata!G4!<)! |] %88
V:8
 z8 | z8 | z8 | z8 | z8 | z8 | z8 | z8 | z8 | z8 | z8 | z8 | z8 | z8 | z8 | z8 | z8 | z8 | z8 | %19
 z8 | z8 | z8 | z8 | z8 | z8 | z8 | z8 | z8 | z8 |][M:4/4] z8 | z8 | z8 | z8 | z8 | z8 | z8 | z8 | %37
 z8 | z8 | z8 | z8 | z8 | z8 | z8 | z8 | z8 | z8 | z8 | z8 | z8 | z8 | z8 | z8 | z8 | z8 | z8 | %56
 z8 | z8 | z8 | z8 | z8 | z8 | z8 | z8 | z8 | z8 | z8 | z8 | z8 | z8 | z8 | z8 | z8 | z8 | z8 | %75
!fff! G, z z2 z4 | z8 | z8 | z8 | z8 | z8 | z8 | z8 | z8 | z8 | z8 | z8 | %87
 z z/4 D/4 C/4 =B,/4 C2-!fff!!fff! !fermata!C4 |] %88
V:9
 z8 | z8 | z8 | z8 | z8 | z8 | z8 | z8 | z8 | z8 | z8 | z8 | z8 | z8 | z8 | z8 | z8 | z8 | z8 | %19
 z8 | z8 | z8 | z8 | z8 | z8 | z8 | z8 | z8 | z8 |][M:4/4] z8 | z8 | z8 | z8 | z8 | z8 | z8 | z8 | %37
 z8 | z8 | z8 | z8 | z8 | z8 | z8 | z8 | z8 | z8 | z8 | z8 | z8 | z8 | z8 | z8 | z8 | z8 | z8 | %56
 z8 | z8 | z8 | z8 | z8 | z8 | z8 | z8 | z8 | z8 | z8 | z8 | z8 | z8 | z8 | z8 | z8 | z8 | z8 | %75
 C,, z z2 z4 | z8 | z8 | z8 | z8 | z8 | z8 | z8 | z8 | z8 | z8 | z8 | z4 !fermata!C,,4 |] %88
V:10
 x8 | x8 | x8 | x8 | x8 | x8 | x8 | x8 | x8 | x8 | x8 | x8 | x8 | x8 | x8 | x8 | x8 | x8 | x8 | %19
 x8 | x8 | x8 | x8 | x8 | x8 | x8 | x8 | x8 | x8 |][M:4/4] x8 | x8 | x8 | x8 | x8 | x8 | x8 | x8 | %37
 x8 | x8 | x8 | x8 | x8 | x8 | x8 | x8 | x8 | x8 | x8 | x8 | x8 | x8 | x8 | x8 | x8 | x8 | x8 | %56
 x8 | x8 | x8 | x8 | x8 | x8 | x8 | x8 | x8 | x8 | x8 | x8 | x8 | x8 | x8 | x8 | x8 | x8 | x8 | %75
 C, x7 | x8 | x8 | x8 | x8 | x8 | x8 | x8 | x8 | x8 | x8 | x8 | %87
 z2 z/4 _A,/4 G,/4 F,/4 G,/4 =E,/4 F,/4 G,/4- G,4 |] %88
V:11
 x8 | x8 | x8 | x8 | x8 | x8 | x8 | x8 | x8 | x8 | x8 | x8 | x8 | x8 | x8 | x8 | x8 | x8 | x8 | %19
 x8 | x8 | x8 | x8 | x8 | x8 | x8 | x8 | x8 | x8 |][M:4/4] x8 | x8 | x8 | x8 | x8 | x8 | x8 | x8 | %37
 x8 | x8 | x8 | x8 | x8 | x8 | x8 | x8 | x8 | x8 | x8 | x8 | x8 | x8 | x8 | x8 | x8 | x8 | x8 | %56
 x8 | x8 | x8 | x8 | x8 | x8 | x8 | x8 | x8 | x8 | x8 | x8 | x8 | x8 | x8 | x8 | x8 | x8 | x8 | %75
 x8 | x8 | x8 | x8 | x8 | x8 | x8 | x8 | x8 | x8 | x8 | x8 | z/4 F/4 =E/4 D/4 E3- E4 |] %88
V:12
 x8 | x8 | x8 | x8 | x8 | x8 | x8 | x8 | x8 | x8 | x8 | x8 | x8 | x8 | x8 | x8 | x8 | x8 | x8 | %19
 x8 | x8 | x8 | x8 | x8 | x8 | x8 | x8 | x8 | x8 |][M:4/4] x8 | x8 | x8 | x8 | x8 | x8 | x8 | x8 | %37
 x8 | x8 | x8 | x8 | x8 | x8 | x8 | x8 | x8 | x8 | x8 | x8 | x8 | x8 | x8 | x8 | x8 | x8 | x8 | %56
 x8 | x8 | x8 | x8 | x8 | x8 | x8 | x8 | x8 | x8 | x8 | x8 | x8 | x8 | x8 | x8 | x8 | x8 | x8 | %75
 x8 | x8 | x8 | x8 | x8 | x8 | x8 | x8 | x8 | x8 | x8 | x8 | x4 [C,=E,]4 |] %88

